X:1
T:Étude op. 30 no 8
T:Étude op. 30 no 8
T:Joachim Andersen
C:Joachim Andersen
L:1/8
Q:1/4=187
M:6/8
K:A
V:1 treble nm="Flûte" snm="Fl."
V:1
!p!"^Presto ma non troppo" .c'.b | .a.c'.a .g.c.a | .g.f.^e .f.f'.=e' | .d'.c'.b .c'.b.a | %4
 .g.^b.c' .c.d'.c' | .=b.^a.=a .g.c'.b | .a.g.=g!mf! .f.^e.f | .^g.c.g .a.g.f | %8
 .^e.g.c' .c!p!.c'.b | .a.c'.a .g.c.a | .g.f.^e .f.f'.=e' | .d'.c'.b .c'.b.a | %12
 .g.^b.c' .c.f'"_cresc.".e' | .d'.c'.=b .e'.^d'.=d' | .c'.^b.=b .a.d'.c' | .b.a.g .c'.^b.=b | %16
 .a.g.=g .f!f!.f.^g | .a.g.f .b.a.g | .c'.b.a .b.c'.d' | .c'.a.f .c.^d.^e | %20
!>(! .f.=e.^e .f.^^f.g!>)! ||!p! .a.g.a .b.a.b | .c'.e'.d' .c'.b.a | .g.f.e .d.c.B | %24
 .A.c.e .a.a.b |!<(! .c'.b.c' .d'.c'.d' | .e'.c'.d' .e'.f'.g'!<)! |!mf! .a'.f'.^d' .b.c'.d' | %28
 .e'.b.g .e!f!.c'.=d' | .e'.f.g .^a.b.c' | .d'.c'.b .f'.b.c' | .d'.e.f .g.a.b | .c'.b.a .e'.f'.e' | %33
 .^d'.b.c' .=d'.e'.d' | .c'.a.b .=c'.d'.c' | .b.f.g .a.f.^d |!>(! .e.^d.e .^e.f.g!>)! | %37
!p! .a.g.a .b.a.b | .c'.e'.d' .c'.b.a | .g.f.e .d.c.B | .A.c.e!<(! .a.a.b | .c'.b.c' .d'.c'.d' | %42
 .e'.c'!<)!.d' .e'.f'.g' | .a'.f'.^d' .b.c'.d' | .e'.b.g .e!f!.a.g | .f.b.a .g.c'.b | %46
 .a.d'.c' .b.e'.d' | .c'.f'.e' .d'.g'.f' | .e'.a'.g' .a'.e'.c' | .f'.d'.b .f.b.d' | %50
 .c'.b.a .e.a.c' | .e'.f.e .d.c.B | .A.B.^B .c!p!.c'.=b || .a.c.a .g.c.a | .g.f.^e .f.f'.=e' | %55
 .d'.c'.b .c'.b.a | .g.^b.c' .c.d'.c' | .=b.^a.=a .g.c'.b | .a.g.=g!mf! .f.^e.f | .^g.c.g .a.g.f | %60
 .^e.g.c' .c!p!.c'.b | .a.c'.a .g.c.a | .g.f.^e .f.f'.=e' | .d'.c'.b .c'.b.a | %64
 .g.^b.c' .c"_cresc.".f'.e' | .d'.c'.b .e'.^d'.=d' | .c'.^b.=b .a.d'.c' | .b.a.g .c'.^b.=b | %68
 .a.g.=g .f!f!.f.^g | .a.g.f .b.a.g | .c'.b.a .b.c'.d' | .c'.b.a .g.a.b | .a.g.f .c.f.g | %73
 .a.g.f .b.a.g | .c'.b.a!<(! .d'.c'.b | .^e'.^d'.c' .f'.=e'.=d' | .g'.f'.^e'!<)!!ff! .a'.f'.^d' | %77
 .^b.a.f .a.f.^d | .c.A.c .f.a.c' | .^e.c.e .g.c'.^e' | .f'.c'.a .f z z |] %81

